X:184
T:The Eagle's Whistle
Z:Jack Campin, http://www.campin.me.uk/
F:Jack Campin's Nine-Note Tunebook
% last edit 03-02-2013
S:Petrie 1855
M:6/8
L:1/8
Q:3/8=72
K:CMix
E2G  EDC|E2G  EDC|D2D EDC|D2D DEC |
E2G  EDC|c>GA GED|C2C EDC|GCC EDC||
c>GA GEG|c>GA GEC|D2D EDC|D2D DEC |
c>GA GEG|c>GA GED|C2C EDC|GCC EDC|]

